X: 573
%
U:~=!turn!
T: Sir Archibald Dunbar
C:
O:Scotland
B:Keith Norman MacDonald : "The Skye collection of the best reels & strathspeys extant" : 1887
Z:Ralph Palmer
R:Strathspey
M:C
L:1/8
K:D
|: DD F>D G>E =CE !segno!|| D>D F>D A>D F>D | A>D F>D G>E =CE | Dd AF DD D2 ::
dd f>d g>e =ce | dd f>d a>d f>d | e>d ef g>a g>e | dB AF AA !fine!B2 :| {ABc}d>A F>A G>E CE !segno!|]
W:The last bar is the most characteristic part of this tune and is to be played the 2nd time in
W:the 2nd part, taking the place of the first bar at the commencement.


